Adwaita++-Light/panel/16/knemo-monitor-transmit.svg

<svg height="16" width="16" xmlns="http://www.w3.org/2000/svg">
  <g fill="#444">
    <path d="m6 7-6 4.5 6 4.5s0-1.33 0-2h3v-2.19-.81-2h-3z" opacity=".3"/>
    <path d="m10 10 6-4.5-6-4.5v2h-3v2.19.81 2h3z"/>
  </g>
</svg>

<svg xmlns="http://www.w3.org/2000/svg" width="16" height="16" version="1.1">
 <defs>
  <style id="current-color-scheme" type="text/css">
   .ColorScheme-Text { color:#444444; } .ColorScheme-Highlight { color:#4285f4; }
  </style>
 </defs>
 <path style="opacity:0.3;fill:currentColor" class="ColorScheme-Text" d="M 6,7 0,11.5 6,16 C 6,16 6,14.67 6,14 H 9 V 11.81 11 9 H 6 Z"/>
 <path style="fill:currentColor" class="ColorScheme-Text" d="M 10,10 16,5.5 10,1 C 10,1 10,2.33 10,3 H 7 V 5.19 6 8 H 10 Z"/>
</svg>
